X: 37014
T: Siege Of Wexford, The
R: jig
M: 6/8
K: Gmajor
B|:Aee ede|GBd dBG|Ade ede|gfd edB|
Aee ede|GBd dBG|AGe dBe|dBG AcB:|
|:Aee Aee|Aee edB|Gdd Bed|GBd dBG|
[1 Aee Aee|Aee deg|efg edB|ABA AcB:|
[2 Aee Aee|Aee ede|gfd edB|ABA A3||

